icons/bhi_clipboard.svg

<svg xmlns="http://www.w3.org/2000/svg" viewBox="0 0 512 512" enable-background="new 0 0 512 512"><path fill="#010101" d="M96 192h320v64h-320zM96 288h320v64h-320zM96 384h320v64h-320zM433.8 46.2h-110c-10.5-27.3-35.7-46.2-65.1-46.2-29.4 0-56.7 18.9-67.2 46.2h-127.5c-25.2 0-30.9 21-30.9 46.2v373.8c0 25.2 5.7 46.2 30.9 46.2h369.8c25.2 0 46.2-21 46.2-46.2v-373.8c0-25.2-18.9-46.2-46.2-46.2zm-175.1 0c12.6 0 23.1 10.5 23.1 23.1s-10.5 23.1-23.1 23.1c-12.6 0-23.1-10.5-23.1-23.1s10.5-23.1 23.1-23.1zm189.3 433.8h-384v-384h96v64h192v-64h96v384z"/></svg>

<?xml version="1.0" encoding="utf-8"?>
<!-- Generator: Adobe Illustrator 19.2.0, SVG Export Plug-In . SVG Version: 6.00 Build 0)  -->
<svg version="1.1" id="Layer_1" xmlns="http://www.w3.org/2000/svg" xmlns:xlink="http://www.w3.org/1999/xlink" x="0px" y="0px"
	 viewBox="0 0 512 512" enable-background="new 0 0 512 512" xml:space="preserve">
<rect x="96" y="192" fill="#010101" width="320" height="64"/>
<rect x="96" y="288" fill="#010101" width="320" height="64"/>
<rect x="96" y="384" fill="#010101" width="320" height="64"/>
<path fill="#010101" d="M433.8,46.2h-110C313.3,18.9,288.1,0,258.7,0c-29.4,0-56.7,18.9-67.2,46.2H64c-25.2,0-30.9,21-30.9,46.2
	v373.8c0,25.2,5.7,46.2,30.9,46.2h369.8c25.2,0,46.2-21,46.2-46.2V92.4C480,67.2,461.1,46.2,433.8,46.2z M258.7,46.2
	c12.6,0,23.1,10.5,23.1,23.1s-10.5,23.1-23.1,23.1c-12.6,0-23.1-10.5-23.1-23.1S246.1,46.2,258.7,46.2z M448,480H64V96h96v64h192V96
	h96v370.2L448,480z"/>
</svg>
